X: 27511
T: Mom's
R: jig
M: 6/8
K: Adorian
|:EAA AGA|BAA A2G|EAA ABc|Bdc BAG|
EAA AGA|BAA Aaf|gag gfe|dBG GAB:|
|:AaA g2A|fed eBA|Aaf g2e|dBG GAB:|
E3 A2B|c2A AGE|E3 A2c|Bdc BAG|
E3 A2B|c2A AEF|GAG GFE|D[B,B][G,G] [G,G][A,A][B,B]|
[A,2A2]A ABc|B2A A2[B,B]|[A,2A2]A ABc|Bdc BA[B,B]|
[A,2A2]A ABc|B2A Aaf|gag gfe|dBG GAB||
|:AaA g2A|fed eBA|Aaf g2e|dBG GAB:|

